packages/tokens/icons/compass/size24Px.svg

<svg viewBox="0 0 24 24" fill="none" xmlns="http://www.w3.org/2000/svg" width="1em" height="1em"><path d="M12 2.5V4.5M12 19.5V21.5M2.5 12H4.5M19.5 12H21.5" stroke="currentColor" stroke-linecap="round"/><path d="M10.5911 10.6309L15.6075 8.3925L13.369 13.4088L8.38487 15.6151L10.5911 10.6309Z" stroke="currentColor" stroke-linejoin="round"/><circle cx="12" cy="12" r="9.5" stroke="currentColor"/></svg>

<svg xmlns="http://www.w3.org/2000/svg" fill="none" viewBox="0 0 24 24" width="1em" height="1em"><path stroke="currentColor" stroke-linecap="round" d="M12 2.5v2m0 15v2M2.5 12h2m15 0h2"/><path stroke="currentColor" stroke-linejoin="round" d="m10.591 10.63 5.017-2.238-2.239 5.017-4.984 2.206 2.206-4.984Z"/><circle cx="12" cy="12" r="9.5" stroke="currentColor"/></svg>
